X:92
T:Grist the miller
%%VWML:SBG-1-2-722-0
F:http://www.vwml.org/record/SBG/1/2/722
Z:Original Sibelius transcriptions by M. & S. Graebe
L:1/8
M:2/4
I:linebreak $
K:C
V:1 treble nm="P1"
V:1
 E E E D | C D A,2 | (3E D C65/64 DE | A,4 | E E E D | C D A,2 | (3E D C65/64 DE | c3 | d |$ %9
 c B A G | A B E3/2 B/ | c B A G | A B D3/2 E/ | E F E D | G A A,2 | (3B, C D65/64 E^D | E4 | %17

